assets/img/scroll_down.svg

<?xml version="1.0" encoding="UTF-8"?>
<svg width="174px" height="173px" viewBox="0 0 174 173" version="1.1" xmlns="http://www.w3.org/2000/svg" xmlns:xlink="http://www.w3.org/1999/xlink">
    <!-- Generator: Sketch 52.1 (67048) - http://www.bohemiancoding.com/sketch -->
    <title>Scroll Down — Scroll</title>
    <desc>Created with Sketch.</desc>
    <g id="Desktop" stroke="none" stroke-width="1" fill="none" fill-rule="evenodd">
        <g id="Wise-Stone---Open" transform="translate(-873.000000, -994.000000)" fill="#FFFFFF">
            <g id="Scroll" transform="translate(873.000000, 994.000000)">
                <path d="M89.3579687,2.97825478 C89.5791476,0.625628824 92.2287597,-0.132694341 94.3444305,0.0662075336 C96.6124296,0.279430343 98.5649261,1.48748935 98.8489038,3.73393225 L96.1380979,3.87180371 C95.9605957,3.03551789 95.1604726,2.46512151 93.9756969,2.35373646 C92.9771003,2.25985477 92.2037423,2.49449791 92.1464586,3.10381111 C92.0923573,3.67927357 92.5651115,4.09936809 93.3446916,4.34340886 L94.870001,4.82830797 C96.5952324,5.3661524 98.8752405,6.1781279 98.6572441,8.49690312 C98.4233354,10.984932 95.8239215,11.9357991 93.6066985,11.7273499 C90.6109086,11.4457049 88.9102662,9.91982431 88.6173192,7.58716336 L91.3281251,7.4492919 C91.5261703,8.61193333 92.4013729,9.29183799 93.8400291,9.42709126 C94.7709243,9.51460809 95.7611296,9.33450148 95.8359167,8.53900925 C95.9043389,7.81121848 94.9714173,7.3820119 93.8766202,7.04003657 L92.517382,6.60490035 C90.7768164,6.04853934 89.1622493,5.06007488 89.3579687,2.97825478 Z M108.859751,10.1347273 L111.323665,11.1907177 C110.290354,13.5023693 107.785878,14.5281889 104.991914,13.7893606 C101.540547,12.8766904 100.013932,10.2046169 100.948333,6.67107465 C101.874041,3.17040256 104.608458,1.60752054 108.059825,2.52019073 C110.837353,3.25467294 112.362869,5.39892566 112.115045,7.86553633 L109.451213,7.5655596 C109.571653,5.97964939 108.62791,5.02671488 107.378844,4.69641519 C105.833946,4.28788663 104.309181,5.13316973 103.709426,7.4012108 C103.092287,9.73499219 104.012952,11.1741852 105.55785,11.5827138 C106.675435,11.8782451 108.104188,11.7285305 108.859751,10.1347273 Z M118.223103,18.3492862 L117.658597,13.565988 L116.103368,12.8795026 L114.428344,16.6742616 L111.955529,15.5827497 L116.513793,5.25602824 L120.386313,6.96537712 C123.107964,8.16672674 124.863856,9.70366668 123.717425,12.3008993 C123.030939,13.8561285 121.806684,14.3563546 120.410076,14.2787772 L121.115829,19.6261493 L118.223103,18.3492862 Z M119.502995,9.17702219 L118.025528,8.52486097 L117.064448,10.7021818 L118.541916,11.354343 C119.708337,11.8692071 120.658424,12.1585026 121.09091,11.1787083 C121.516531,10.2144662 120.669417,9.69188631 119.502995,9.17702219 Z M132.496206,20.0942076 C133.800227,18.0627246 133.209723,16.3706105 131.793407,15.4614685 C130.391398,14.5615098 128.60707,14.7292041 127.303048,16.7606871 C125.999027,18.7921701 126.543615,20.5558153 127.945624,21.455774 C129.36194,22.364916 131.192184,22.1256906 132.496206,20.0942076 Z M134.89965,21.6369939 C132.943618,24.6842184 129.676456,25.2737404 126.715069,23.3728073 C123.753681,21.4718741 122.943571,18.2651253 124.899604,15.2179008 C126.86482,12.1563701 130.062576,11.6435021 133.023963,13.5444353 C135.98535,15.4453684 136.864866,18.5754632 134.89965,21.6369939 Z M142.694552,20.7287032 L136.878115,27.4756674 L141.037027,31.0609902 L139.483017,32.8636142 L133.27684,27.5133801 L140.647287,18.963792 L142.694552,20.7287032 Z M150.683778,28.323406 L144.094703,34.3181167 L147.789916,38.3797029 L146.029476,39.9813432 L140.515258,33.9204003 L148.864772,26.3240493 L150.683778,28.323406 Z M159.838,51.3091773 C162.499846,49.8699918 161.690455,47.8725698 160.744474,46.1229298 L160.453402,45.584579 L154.710994,48.6893385 L155.002065,49.2276893 C155.948047,50.9773293 157.176155,52.7483627 159.838,51.3091773 Z M161.261424,42.0749195 L162.813804,44.9461236 C164.592572,48.236045 165.039559,51.7435559 161.196332,53.8214809 C157.353106,55.8994059 154.662992,53.6046917 152.884223,50.3147703 L151.331843,47.4435662 L161.261424,42.0749195 Z M165.094125,64.5098354 C167.382621,63.7416033 167.981135,62.0523055 167.445537,60.4568046 C166.915348,58.8774198 165.41876,57.8914331 163.130264,58.6596652 C160.841768,59.4278973 160.162673,61.1442455 160.692861,62.7236303 C161.228459,64.3191313 162.805629,65.2780675 165.094125,64.5098354 Z M166.003019,67.2173522 C162.570275,68.3697003 159.653182,66.7846292 158.533294,63.4485818 C157.413406,60.1125343 158.788625,57.1044966 162.22137,55.9521484 C165.67023,54.7943902 168.485216,56.3958057 169.605104,59.7318531 C170.724991,63.0679006 169.45188,66.0595939 166.003019,67.2173522 Z M173.216163,77.8993316 L165.697384,80.5412548 L173.58097,80.8518798 L173.931185,83.686326 L162.411513,82.5060101 L162.055044,79.6209488 L169.687755,76.9306899 L161.629783,76.1791212 L161.275398,73.3109316 L172.157179,69.3285061 L172.511564,72.1966958 L164.991089,74.5476307 L172.874286,75.1323722 L173.216163,77.8993316 Z M161.887334,96.9768255 L162.14991,93.604031 L170.203322,89.8146774 L162.491656,89.2143136 L162.701454,86.5194678 L173.955401,87.3956031 L173.692824,90.7683976 L165.639413,94.5577511 L173.351079,95.158115 L173.141281,97.8529608 L161.887334,96.9768255 Z M160.250682,116.709136 L163.247517,108.736792 C163.456877,108.179841 164.09182,107.891838 164.64877,108.101198 C165.20572,108.310557 165.493723,108.9455 165.284364,109.50245 L162.287528,117.474794 C162.078169,118.031744 161.443226,118.319748 160.886276,118.110388 C160.329326,117.901028 160.041322,117.266086 160.250682,116.709136 Z M158.580267,128.93177 C160.509217,130.296659 159.845259,132.971478 158.617841,134.706145 C157.302049,136.565708 155.281268,137.655706 153.192453,136.781634 L154.424731,134.36317 C155.238133,134.626338 156.131543,134.217232 156.818897,133.245818 C157.398238,132.427055 157.580497,131.639704 157.080913,131.286208 C156.609084,130.95235 156.009202,131.152645 155.40892,131.706686 L154.227993,132.787015 C152.90148,134.014232 151.060704,135.585628 149.159509,134.240378 C147.11954,132.796935 147.59157,130.069612 148.877904,128.251681 C150.615927,125.795392 152.786603,125.082187 154.954624,125.991478 L153.722347,128.409942 C152.615817,128.001838 151.590046,128.421415 150.755402,129.600989 C150.215338,130.364242 149.877673,131.31236 150.529908,131.773869 C151.126634,132.196101 151.963883,131.601479 152.806242,130.823046 L153.861221,129.861852 C155.21143,128.630577 156.873354,127.723991 158.580267,128.93177 Z M142.811063,142.310582 L140.694367,143.955447 C139.171759,141.932299 139.486424,139.244234 141.485353,137.157039 C143.954618,134.578739 147.031748,134.536316 149.671436,137.064373 C152.286569,139.568913 152.33055,142.718151 149.861285,145.296451 C147.874115,147.371369 145.259381,147.668323 143.22096,146.257498 L144.772886,144.071746 C146.10232,144.9448 147.392996,144.580258 148.286635,143.647159 C149.391925,142.493063 149.390336,140.749672 147.696024,139.127013 C145.952603,137.457319 144.247603,137.566292 143.142313,138.720388 C142.342741,139.555266 141.782156,140.87795 142.811063,142.310582 Z M131.145196,146.588963 L135.623143,148.362828 L136.965638,147.319895 L134.420883,144.044208 L136.555449,142.385946 L143.480521,151.30011 L140.137709,153.897012 C137.788343,155.722144 135.602073,156.537962 133.860376,154.295996 C132.817443,152.953502 132.958348,151.638521 133.689619,150.44614 L128.648156,148.528818 L131.145196,146.588963 Z M138.610479,152.069666 L139.885849,151.07888 L138.425743,149.199388 L137.150373,150.190173 C136.143502,150.972373 135.437861,151.671248 136.094908,152.51702 C136.741526,153.349367 137.603608,152.851865 138.610479,152.069666 Z M122.855518,158.34895 C124.032105,160.456802 125.802738,160.733941 127.272296,159.913644 C128.727011,159.101634 129.420487,157.449049 128.2439,155.341197 C127.067313,153.233345 125.255252,152.881986 123.800537,153.693997 C122.330978,154.514293 121.678931,156.241098 122.855518,158.34895 Z M120.361722,159.740968 C118.596841,156.57919 119.617523,153.420062 122.690237,151.704897 C125.76295,149.989732 128.972817,150.787401 130.737697,153.949179 C132.510863,157.125801 131.45531,160.187579 128.382596,161.902744 C125.309883,163.617909 122.134887,162.91759 120.361722,159.740968 Z M117.445098,167.039017 L114.26764,158.716985 L109.137837,160.675609 L108.288898,158.452165 L115.943897,155.529388 L119.970295,166.074865 L117.445098,167.039017 Z M106.869036,170.452671 L104.798051,161.788752 L99.457506,163.065332 L98.9041895,160.750545 L106.873672,158.845555 L109.497973,169.824262 L106.869036,170.452671 Z M82.0943342,166.972123 C81.9634188,169.99529 84.0931165,170.325737 86.0802542,170.411788 L86.6916812,170.438266 L86.9741053,163.916378 L86.3626784,163.8899 C84.3755407,163.803849 82.2252495,163.948956 82.0943342,166.972123 Z M89.2891832,172.932978 L86.0282393,172.791766 C82.2917411,172.629961 79.05199,171.213472 79.2410082,166.848562 C79.4300265,162.483653 82.7800995,161.35253 86.5165978,161.514335 L89.7775417,161.655547 L89.2891832,172.932978 Z M68.0339048,164.566344 C67.4838097,166.916832 68.6058821,168.314294 70.2446023,168.697811 C71.8667697,169.077454 73.4924503,168.323061 74.0425454,165.972573 C74.5926404,163.622086 73.4899376,162.14186 71.8677702,161.762217 C70.22905,161.3787 68.5839999,162.215857 68.0339048,164.566344 Z M65.2530464,163.915528 C66.078189,160.389796 68.9604591,158.742252 72.386874,159.544152 C75.8132888,160.346051 77.6485464,163.097659 76.8234038,166.62339 C75.9943873,170.165674 73.1519133,171.717775 69.7254985,170.915876 C66.2990836,170.113977 64.4240299,167.457811 65.2530464,163.915528 Z M52.4249182,164.556096 L54.0699727,156.758302 L49.7119865,163.335184 L47.107572,162.163108 L54.096436,152.929919 L56.7473579,154.122925 L55.0844719,162.043189 L59.9098613,155.546159 L62.5452807,156.732188 L60.3001716,168.100229 L57.6647522,166.9142 L59.5593953,159.266014 L54.9673229,165.700265 L52.4249182,164.556096 Z M41.8561121,145.161577 L44.641314,147.081822 L43.8757663,155.94921 L48.2662753,149.581035 L50.4916376,151.1153 L44.0843893,160.408637 L41.2991874,158.488393 L42.0647351,149.621005 L37.6742261,155.98918 L35.4488638,154.454914 L41.8561121,145.161577 Z M25.3152373,134.291299 L30.9395531,140.687107 C31.3324694,141.13392 31.2878121,141.829695 30.8409992,142.222612 C30.3941863,142.615528 29.6984106,142.570871 29.3054943,142.124058 L23.6811785,135.72825 C23.2882623,135.281437 23.3329195,134.585661 23.7797324,134.192745 C24.2265454,133.799829 24.922321,133.844486 25.3152373,134.291299 Z M15.2966407,127.185432 C13.1955997,128.266818 11.1290479,126.443398 10.1565784,124.553972 C9.11409125,122.528508 9.07966504,120.232759 10.8190545,118.783045 L12.3959101,120.992344 C11.7870671,121.592503 11.7377082,122.573886 12.2822911,123.631964 C12.7412966,124.523773 13.3556831,125.048815 13.8998376,124.768744 C14.4137613,124.504232 14.5129075,123.879616 14.2984131,123.091394 L13.8849836,121.545182 C13.408428,119.802026 12.8638608,117.443808 14.9346711,116.377982 C17.1566353,115.234358 19.3583375,116.911739 20.3774855,118.891857 C21.7545021,121.567283 21.3854835,123.822127 19.5782967,125.325856 L18.0014411,123.116557 C18.8741375,122.323236 18.9752901,121.219598 18.3140109,119.934788 C17.8861244,119.103441 17.2008319,118.366339 16.4904079,118.731988 C15.8404456,119.066517 15.9815836,120.08369 16.2834318,121.190224 L16.6492945,122.569722 C17.1185145,124.335774 17.1558353,126.228522 15.2966407,127.185432 Z M10.7896966,106.93832 L10.3374763,104.296071 C12.8395773,103.907541 15.0615448,105.452715 15.9593561,108.19972 C17.068417,111.593079 15.654643,114.326533 12.1804899,115.462 C8.73865459,116.586905 5.9408799,115.140498 4.83181897,111.747139 C3.93928899,109.016294 4.91054741,106.570547 7.11595343,105.438395 L8.31148084,107.837707 C6.91464764,108.598282 6.62741808,109.908333 7.02879251,111.136406 C7.52522931,112.655338 9.0633197,113.476125 11.2932412,112.747313 C13.5877981,111.997377 14.295788,110.442497 13.7993512,108.923565 C13.4402267,107.824764 12.538243,106.706652 10.7896966,106.93832 Z M12.6857916,94.5902577 L8.94431051,97.6233959 L9.19509839,99.3047958 L13.297714,98.6928733 L13.6964667,101.366299 L2.53197178,103.031531 L1.90750995,98.844845 C1.46863115,95.9023953 1.82947296,93.5969385 4.6374107,93.1781227 C6.31881054,92.9273348 7.39581991,93.6948495 8.07653254,94.9167989 L12.2193261,91.462854 L12.6857916,94.5902577 Z M4.24893034,98.409672 L4.48717882,100.007002 L6.84113861,99.6558988 L6.60289012,98.0585689 C6.4147992,96.7975191 6.15164424,95.8398623 5.09236234,95.9978587 C4.04989444,96.1533472 4.06083942,97.1486221 4.24893034,98.409672 Z M6.72164013,81.4949931 C4.30846824,81.431768 3.1668918,82.8133429 3.12281235,84.4957656 C3.07917814,86.1611941 4.14684358,87.6006511 6.56001547,87.6638762 C8.97318737,87.7271012 10.1997346,86.3477526 10.2433689,84.6823241 C10.2874483,82.9999014 9.13481203,81.5582182 6.72164013,81.4949931 Z M6.79644163,78.6399728 C10.4161995,78.7348104 12.6127535,81.2241943 12.5205874,84.7419872 C12.4284213,88.25978 10.1049718,90.613734 6.48521398,90.5188964 C2.84846197,90.4236136 0.753427671,87.9538953 0.845593799,84.4361025 C0.937759927,80.9183096 3.15968962,78.54469 6.79644163,78.6399728 Z M2.09136539,72.2538671 L10.8454,73.9029097 L11.86189,68.5068159 L14.2007542,68.9473998 L12.6838868,76.9997751 L1.59098796,74.9101486 L2.09136539,72.2538671 Z M4.75473012,61.3990666 L13.2056829,64.2157775 L14.941938,59.006507 L17.1998261,59.7590634 L14.6088821,67.5326497 L3.90004111,63.9633824 L4.75473012,61.3990666 Z M20.4747903,42.1806191 C17.932009,40.5402108 16.5708271,42.2111362 15.4925813,43.8825149 L15.1608133,44.3967853 L20.646364,47.9356436 L20.9781319,47.4213732 C22.0563778,45.7499945 23.0175716,43.8210273 20.4747903,42.1806191 Z M11.6955644,45.3779374 L13.4649936,42.6351621 C15.4924645,39.4923987 18.3517218,37.412236 22.0230408,39.7806906 C25.6943599,42.1491453 24.9778958,45.6116744 22.9504249,48.7544378 L21.1809958,51.4972132 L11.6955644,45.3779374 Z M29.3865807,31.1971784 C27.5935338,29.580893 25.8280426,29.8890927 24.7011958,31.1391747 C23.5857312,32.3766297 23.4617619,34.1645272 25.2548089,35.7808126 C27.0478559,37.397098 28.8764825,37.1458099 29.9919471,35.9083549 C31.1187939,34.6582728 31.1796277,32.8134638 29.3865807,31.1971784 Z M31.2988057,29.0758271 C33.9883762,31.5002552 34.0401117,34.8197741 31.6839773,37.433582 C29.3278429,40.0473899 26.0321544,40.3265921 23.3425839,37.902164 C20.6403863,35.4663536 20.6530311,32.2277556 23.0091655,29.6139476 C25.3652999,27.0001397 28.5966082,26.6400167 31.2988057,29.0758271 Z M36.7165856,17.5221974 L42.8281848,22.6368969 L39.0686367,15.7005277 L41.3266057,13.9517247 L46.1956169,24.4583288 L43.897327,26.2383604 L37.6859804,21.0503979 L41.1555075,28.3619069 L38.8706578,30.1315289 L29.8889173,22.8102445 L32.173767,21.0406224 L38.0360621,26.3054036 L34.5123777,19.2293622 L36.7165856,17.5221974 Z M58.8073337,17.30222 L55.8048949,18.8610819 L48.3329663,14.0250798 L51.8971982,20.8899524 L49.4982648,22.1354752 L44.2968361,12.1172876 L47.2992749,10.5584257 L54.7712035,15.3944277 L51.2069716,8.52955514 L53.605905,7.28403232 L58.8073337,17.30222 Z M76.2929929,8.02124723 L67.9719889,9.83788733 C67.3906813,9.96479832 66.8038715,9.58829821 66.6769605,9.00699054 C66.5500496,8.42568288 66.9265497,7.83887314 67.5078573,7.71196215 L75.8288613,5.89532205 C76.410169,5.76841107 76.9969787,6.14491118 77.1238897,6.72621884 C77.2508007,7.30752651 76.8743006,7.89433625 76.2929929,8.02124723 Z" id="Scroll-Down-—-Scroll"></path>
            </g>
        </g>
    </g>
</svg>

<svg id="Layer_1" data-name="Layer 1" xmlns="http://www.w3.org/2000/svg" viewBox="0 0 173.11 172.9">
  <defs>
    <style>
      .cls-1 {
        fill: #ff2b06;
        fill-rule: evenodd;
      }
    </style>
  </defs>
  <g id="Desktop">
    <g id="Wise-Stone---Open">
      <g id="Scroll">
        <path id="Scroll-Down-_-Scroll" data-name="Scroll-Down-—-Scroll" class="cls-1" d="M89.36,3c.22-2.35,2.87-3.11,5-2.91,2.27.21,4.22,1.42,4.51,3.66l-2.71.14A2.21,2.21,0,0,0,94,2.35c-1-.09-1.78.14-1.83.75s.42,1,1.19,1.24l1.53.49c1.73.54,4,1.35,3.79,3.67-.24,2.48-2.84,3.44-5,3.23-3-.28-4.7-1.81-5-4.14l2.71-.14a2.46,2.46,0,0,0,2.51,2c.93.08,1.92-.1,2-.89S95,7.38,93.88,7L92.52,6.6C90.78,6.05,89.16,5.06,89.36,3Zm19.5,7.15,2.46,1.06c-1,2.31-3.53,3.34-6.33,2.6-3.45-.91-5-3.59-4-7.12s3.66-5.06,7.11-4.15a5,5,0,0,1,4.06,5.35l-2.67-.3a2.6,2.6,0,0,0-2.07-2.87c-1.55-.41-3.07.43-3.67,2.7s.3,3.77,1.85,4.18A2.64,2.64,0,0,0,108.86,10.13Zm9.36,8.22-.56-4.78-1.56-.69-1.67,3.79L112,15.58l4.55-10.32L120.39,7c2.72,1.2,4.47,2.73,3.33,5.33a3.13,3.13,0,0,1-3.31,2l.71,5.35Zm1.28-9.17L118,8.52l-1,2.18,1.48.65c1.17.52,2.12.81,2.55-.17S120.67,9.69,119.5,9.18Zm13,10.91c1.3-2,.71-3.72-.71-4.63s-3.18-.73-4.49,1.3-.76,3.8.65,4.7S131.19,22.13,132.5,20.09Zm2.4,1.55a5.57,5.57,0,0,1-8.18,1.73,5.54,5.54,0,0,1-1.82-8.15c2-3.06,5.16-3.58,8.12-1.68S136.86,18.58,134.9,21.64Zm7.79-.91-5.81,6.75L141,31.06l-1.56,1.8-6.2-5.35L140.65,19Zm8,7.59-6.59,6,3.7,4.06L146,40l-5.51-6.06,8.34-7.6Zm9.16,23c2.66-1.44,1.85-3.44.9-5.19l-.29-.54-5.74,3.11.29.54C156,51,157.18,52.75,159.84,51.31Zm1.42-9.24L162.81,45c1.78,3.29,2.23,6.79-1.61,8.87s-6.54-.22-8.32-3.51l-1.55-2.87Zm3.83,22.44c2.29-.77,2.89-2.46,2.36-4.05s-2-2.57-4.32-1.8-3,2.48-2.44,4.06S162.81,65.28,165.09,64.51Zm.91,2.71a5.58,5.58,0,0,1-7.47-3.77,5.56,5.56,0,0,1,3.69-7.5c3.45-1.16,6.27.45,7.39,3.78S169.45,66.06,166,67.22Zm7.22,10.68-7.52,2.64,7.88.31.35,2.84-11.52-1.18-.35-2.89,7.63-2.69-8.06-.75-.35-2.87,10.88-4,.35,2.87L165,74.55l7.88.58ZM161.89,97l.26-3.38,8-3.79-7.71-.6.21-2.69L174,87.4l-.27,3.37-8.05,3.79,7.71.6-.21,2.69Zm-1.64,19.73,3-8a1.08,1.08,0,1,1,2,.76l-3,8a1.09,1.09,0,0,1-2-.76Zm-1.67,12.22c1.93,1.37,1.27,4,0,5.78s-3.34,2.95-5.43,2.07l1.23-2.42a2.18,2.18,0,0,0,2.4-1.11c.58-.82.76-1.61.26-2s-1.07-.14-1.67.42l-1.18,1.08c-1.33,1.22-3.17,2.8-5.07,1.45s-1.57-4.17-.28-6c1.74-2.45,3.91-3.17,6.07-2.26l-1.23,2.42a2.44,2.44,0,0,0-3,1.19c-.54.76-.88,1.71-.23,2.17s1.43-.17,2.28-1l1.05-1C155.21,128.63,156.87,127.72,158.58,128.93Zm-15.77,13.38L140.69,144c-1.52-2-1.2-4.72.8-6.8,2.46-2.58,5.54-2.62,8.18-.1s2.66,5.66.19,8.24c-2,2.07-4.6,2.37-6.64,1l1.55-2.19a2.62,2.62,0,0,0,3.52-.42c1.1-1.16,1.1-2.9-.59-4.52s-3.45-1.56-4.56-.41A2.65,2.65,0,0,0,142.81,142.31Zm-11.66,4.28,4.47,1.77,1.35-1L134.42,144l2.14-1.65,6.92,8.91-3.34,2.6c-2.35,1.82-4.54,2.64-6.28.4a3.14,3.14,0,0,1-.17-3.85l-5-1.92Zm7.46,5.48,1.28-1-1.46-1.88-1.28,1c-1,.78-1.71,1.48-1.06,2.33S137.6,152.85,138.61,152.07Zm-15.75,6.28c1.17,2.11,2.94,2.38,4.41,1.56s2.15-2.46,1-4.57-3-2.46-4.44-1.65S121.68,156.24,122.86,158.35Zm-2.5,1.39A5.94,5.94,0,0,1,130.74,154c1.77,3.18.72,6.24-2.36,8S122.13,162.92,120.36,159.74Zm-2.91,7.3-3.18-8.32-5.13,2-.85-2.23,7.65-2.92,4,10.54Zm-10.58,3.41-2.07-8.66-5.34,1.28-.56-2.32,8-1.9,2.63,11ZM82.09,167c-.13,3,2,3.36,4,3.44l.61,0,.28-6.52-.61,0C84.38,163.8,82.23,164,82.09,167Zm7.2,6L86,172.79c-3.74-.16-7-1.58-6.79-5.94s3.54-5.5,7.28-5.34l3.26.15ZM68,164.57c-.55,2.35.58,3.74,2.21,4.13s3.25-.38,3.8-2.73-.55-3.83-2.17-4.21S68.58,162.22,68,164.57Zm-2.78-.65a5.58,5.58,0,0,1,7.14-4.38,5.56,5.56,0,0,1,4.43,7.08c-.83,3.55-3.67,5.1-7.09,4.3S64.42,167.46,65.25,163.92Zm-12.83.64,1.65-7.8-4.36,6.58-2.6-1.18,7-9.23,2.65,1.19L55.08,162l4.83-6.49,2.64,1.18L60.3,168.1l-2.64-1.19,1.9-7.64L55,165.7Zm-10.56-19.4,2.78,1.92L43.88,156l4.39-6.37,2.22,1.54-6.41,9.29-2.78-1.92.76-8.87L37.67,156l-2.22-1.54ZM25.32,134.29l5.62,6.4a1.08,1.08,0,1,1-1.63,1.43l-5.63-6.39a1.09,1.09,0,0,1,1.64-1.44Zm-10-7.1c-2.1,1.08-4.17-.75-5.14-2.64s-1.08-4.32.66-5.77L12.4,121a2.19,2.19,0,0,0-.12,2.64c.46.89,1.08,1.42,1.62,1.14s.61-.89.4-1.68l-.42-1.54c-.47-1.75-1-4.11,1-5.17,2.23-1.15,4.43.53,5.45,2.51,1.37,2.68,1,4.93-.8,6.44L18,123.12a2.45,2.45,0,0,0,.31-3.19c-.42-.83-1.11-1.56-1.82-1.2s-.51,1.35-.21,2.46l.37,1.38C17.12,124.34,17.16,126.23,15.3,127.19Zm-4.51-20.25-.45-2.64c2.5-.39,4.72,1.15,5.62,3.9,1.11,3.39-.31,6.13-3.78,7.26s-6.24-.32-7.35-3.71c-.89-2.73.08-5.18,2.29-6.31l1.19,2.4A2.6,2.6,0,0,0,7,111.14c.5,1.52,2,2.34,4.26,1.61s3-2.31,2.51-3.83A2.65,2.65,0,0,0,10.79,106.94Zm1.9-12.35-3.75,3L9.2,99.3l4.1-.61.4,2.68L2.53,103l-.62-4.19c-.44-2.94-.08-5.24,2.73-5.66a3.12,3.12,0,0,1,3.44,1.74l4.14-3.46ZM4.25,98.41l.24,1.6,2.35-.35-.24-1.6C6.41,96.8,6.15,95.84,5.09,96S4.06,97.15,4.25,98.41ZM6.72,81.49c-2.41-.06-3.55,1.32-3.6,3s1,3.1,3.44,3.16,3.64-1.31,3.68-3S9.13,81.56,6.72,81.49Zm.08-2.85a5.94,5.94,0,0,1-.31,11.88C2.85,90.42.75,88,.85,84.44S3.16,78.54,6.8,78.64ZM2.09,72.25l8.76,1.65,1-5.39L14.2,69l-1.52,8L1.59,74.91ZM4.75,61.4l8.46,2.82L14.94,59l2.26.75-2.59,7.77L3.9,64ZM20.47,42.18c-2.54-1.64-3.9,0-5,1.7l-.33.52,5.49,3.54.33-.52C22.06,45.75,23,43.82,20.47,42.18Zm-8.77,3.2,1.76-2.74c2-3.15,4.89-5.23,8.56-2.86s3,5.83.93,9L21.18,51.5ZM29.39,31.2c-1.8-1.62-3.56-1.31-4.69-.06s-1.24,3,.55,4.64,3.63,1.37,4.74.13S31.18,32.81,29.39,31.2Zm1.91-2.12a5.56,5.56,0,0,1,.38,8.35,5.54,5.54,0,0,1-8.34.47c-2.7-2.43-2.69-5.67-.33-8.29S28.6,26.64,31.3,29.08Zm5.42-11.56,6.11,5.12L39.07,15.7,41.33,14,46.2,24.46l-2.3,1.78-6.21-5.19,3.47,7.31-2.29,1.77-9-7.32L32.17,21,38,26.31l-3.53-7.08Zm22.09-.22-3,1.56L48.33,14l3.57,6.86-2.4,1.25-5.2-10,3-1.56,7.47,4.83L51.21,8.53l2.4-1.25ZM76.29,8,68,9.84a1.09,1.09,0,0,1-.46-2.13L75.83,5.9a1.08,1.08,0,0,1,1.29.83A1.09,1.09,0,0,1,76.29,8Z" transform="translate(-0.84 -0.04)"/>
      </g>
    </g>
  </g>
</svg>
